bernoullicharts/pow_x_5_1__bound.svg

<?xml version="1.0" encoding="utf-8" standalone="no"?>
<!DOCTYPE svg PUBLIC "-//W3C//DTD SVG 1.1//EN"
  "http://www.w3.org/Graphics/SVG/1.1/DTD/svg11.dtd">
<!-- Created with matplotlib (https://matplotlib.org/) -->
<svg height="345.6pt" version="1.1" viewBox="0 0 460.8 345.6" width="460.8pt" xmlns="http://www.w3.org/2000/svg" xmlns:xlink="http://www.w3.org/1999/xlink">
 <defs>
  <style type="text/css">
*{stroke-linecap:butt;stroke-linejoin:round;}
  </style>
 </defs>
 <g id="figure_1">
  <g id="patch_1">
   <path d="M 0 345.6 
L 460.8 345.6 
L 460.8 0 
L 0 0 
z
" style="fill:#ffffff;"/>
  </g>
  <g id="axes_1">
   <g id="patch_2">
    <path d="M 57.6 307.584 
L 414.72 307.584 
L 414.72 41.472 
L 57.6 41.472 
z
" style="fill:#ffffff;"/>
   </g>
   <g id="matplotlib.axis_1">
    <g id="xtick_1">
     <g id="line2d_1">
      <defs>
       <path d="M 0 0 
L 0 3.5 
" id="m71b379b342" style="stroke:#000000;stroke-width:0.8;"/>
      </defs>
      <g>
       <use style="stroke:#000000;stroke-width:0.8;" x="73.800255" xlink:href="#m71b379b342" y="307.584"/>
      </g>
     </g>
     <g id="text_1">
      <text style="font-family:DejaVu Sans;font-size:10px;font-style:normal;font-weight:normal;text-anchor:middle;" transform="rotate(-0, 73.800255, 322.182437)" x="73.800255" y="322.182437">0.0</text>
     </g>
    </g>
    <g id="xtick_2">
     <g id="line2d_2">
      <g>
       <use style="stroke:#000000;stroke-width:0.8;" x="138.744153" xlink:href="#m71b379b342" y="307.584"/>
      </g>
     </g>
     <g id="text_2">
      <text style="font-family:DejaVu Sans;font-size:10px;font-style:normal;font-weight:normal;text-anchor:middle;" transform="rotate(-0, 138.744153, 322.182437)" x="138.744153" y="322.182437">0.2</text>
     </g>
    </g>
    <g id="xtick_3">
     <g id="line2d_3">
      <g>
       <use style="stroke:#000000;stroke-width:0.8;" x="203.688051" xlink:href="#m71b379b342" y="307.584"/>
      </g>
     </g>
     <g id="text_3">
      <text style="font-family:DejaVu Sans;font-size:10px;font-style:normal;font-weight:normal;text-anchor:middle;" transform="rotate(-0, 203.688051, 322.182437)" x="203.688051" y="322.182437">0.4</text>
     </g>
    </g>
    <g id="xtick_4">
     <g id="line2d_4">
      <g>
       <use style="stroke:#000000;stroke-width:0.8;" x="268.631949" xlink:href="#m71b379b342" y="307.584"/>
      </g>
     </g>
     <g id="text_4">
      <text style="font-family:DejaVu Sans;font-size:10px;font-style:normal;font-weight:normal;text-anchor:middle;" transform="rotate(-0, 268.631949, 322.182437)" x="268.631949" y="322.182437">0.6</text>
     </g>
    </g>
    <g id="xtick_5">
     <g id="line2d_5">
      <g>
       <use style="stroke:#000000;stroke-width:0.8;" x="333.575847" xlink:href="#m71b379b342" y="307.584"/>
      </g>
     </g>
     <g id="text_5">
      <text style="font-family:DejaVu Sans;font-size:10px;font-style:normal;font-weight:normal;text-anchor:middle;" transform="rotate(-0, 333.575847, 322.182437)" x="333.575847" y="322.182437">0.8</text>
     </g>
    </g>
    <g id="xtick_6">
     <g id="line2d_6">
      <g>
       <use style="stroke:#000000;stroke-width:0.8;" x="398.519745" xlink:href="#m71b379b342" y="307.584"/>
      </g>
     </g>
     <g id="text_6">
      <text style="font-family:DejaVu Sans;font-size:10px;font-style:normal;font-weight:normal;text-anchor:middle;" transform="rotate(-0, 398.519745, 322.182437)" x="398.519745" y="322.182437">1.0</text>
     </g>
    </g>
    <g id="text_7">
     <text style="font-family:DejaVu Sans;font-size:10px;font-style:normal;font-weight:normal;text-anchor:middle;" transform="rotate(-0, 236.16, 335.860562)" x="236.16" y="335.860562">Input Coin's Heads Probability (λ)</text>
    </g>
   </g>
   <g id="matplotlib.axis_2">
    <g id="ytick_1">
     <g id="line2d_7">
      <defs>
       <path d="M 0 0 
L -3.5 0 
" id="m545179cc15" style="stroke:#000000;stroke-width:0.8;"/>
      </defs>
      <g>
       <use style="stroke:#000000;stroke-width:0.8;" x="57.6" xlink:href="#m545179cc15" y="295.488"/>
      </g>
     </g>
     <g id="text_8">
      <text style="font-family:DejaVu Sans;font-size:10px;font-style:normal;font-weight:normal;text-anchor:end;" transform="rotate(-0, 50.6, 299.287219)" x="50.6" y="299.287219">0</text>
     </g>
    </g>
    <g id="ytick_2">
     <g id="line2d_8">
      <g>
       <use style="stroke:#000000;stroke-width:0.8;" x="57.6" xlink:href="#m545179cc15" y="247.094323"/>
      </g>
     </g>
     <g id="text_9">
      <text style="font-family:DejaVu Sans;font-size:10px;font-style:normal;font-weight:normal;text-anchor:end;" transform="rotate(-0, 50.6, 250.893542)" x="50.6" y="250.893542">1</text>
     </g>
    </g>
    <g id="ytick_3">
     <g id="line2d_9">
      <g>
       <use style="stroke:#000000;stroke-width:0.8;" x="57.6" xlink:href="#m545179cc15" y="198.700646"/>
      </g>
     </g>
     <g id="text_10">
      <text style="font-family:DejaVu Sans;font-size:10px;font-style:normal;font-weight:normal;text-anchor:end;" transform="rotate(-0, 50.6, 202.499865)" x="50.6" y="202.499865">2</text>
     </g>
    </g>
    <g id="ytick_4">
     <g id="line2d_10">
      <g>
       <use style="stroke:#000000;stroke-width:0.8;" x="57.6" xlink:href="#m545179cc15" y="150.30697"/>
      </g>
     </g>
     <g id="text_11">
      <text style="font-family:DejaVu Sans;font-size:10px;font-style:normal;font-weight:normal;text-anchor:end;" transform="rotate(-0, 50.6, 154.106188)" x="50.6" y="154.106188">3</text>
     </g>
    </g>
    <g id="ytick_5">
     <g id="line2d_11">
      <g>
       <use style="stroke:#000000;stroke-width:0.8;" x="57.6" xlink:href="#m545179cc15" y="101.913293"/>
      </g>
     </g>
     <g id="text_12">
      <text style="font-family:DejaVu Sans;font-size:10px;font-style:normal;font-weight:normal;text-anchor:end;" transform="rotate(-0, 50.6, 105.712512)" x="50.6" y="105.712512">4</text>
     </g>
    </g>
    <g id="ytick_6">
     <g id="line2d_12">
      <g>
       <use style="stroke:#000000;stroke-width:0.8;" x="57.6" xlink:href="#m545179cc15" y="53.519616"/>
      </g>
     </g>
     <g id="text_13">
      <text style="font-family:DejaVu Sans;font-size:10px;font-style:normal;font-weight:normal;text-anchor:end;" transform="rotate(-0, 50.6, 57.318835)" x="50.6" y="57.318835">5</text>
     </g>
    </g>
    <g id="text_14">
     <text style="font-family:DejaVu Sans;font-size:10px;font-style:normal;font-weight:normal;text-anchor:middle;" transform="rotate(-90, 38.157812, 174.528)" x="38.157812" y="174.528">Coin Flips Needed</text>
    </g>
   </g>
   <g id="line2d_13">
    <path clip-path="url(#p2530048f81)" d="M 73.832727 295.488 
L 77.112066 295.487987 
L 80.391405 295.487799 
L 83.670744 295.486998 
L 86.950083 295.484878 
L 90.229421 295.480473 
L 93.50876 295.472579 
L 96.788099 295.459764 
L 100.067438 295.440388 
L 103.346777 295.412613 
L 106.626116 295.374425 
L 109.905455 295.323641 
L 113.184793 295.257931 
L 116.464132 295.174829 
L 119.743471 295.071751 
L 123.02281 294.946004 
L 126.302149 294.794811 
L 129.581488 294.615315 
L 132.860826 294.4046 
L 136.140165 294.159703 
L 139.419504 293.877627 
L 142.698843 293.555358 
L 145.978182 293.189876 
L 149.257521 292.778169 
L 152.53686 292.317243 
L 155.816198 291.804141 
L 159.095537 291.235947 
L 162.374876 290.609805 
L 165.654215 289.922924 
L 168.933554 289.172592 
L 172.212893 288.356185 
L 175.492231 287.471175 
L 178.77157 286.515143 
L 182.050909 285.485782 
L 185.330248 284.380909 
L 188.609587 283.198467 
L 191.888926 281.936536 
L 195.168264 280.593337 
L 198.447603 279.167235 
L 201.726942 277.656746 
L 205.006281 276.060536 
L 208.28562 274.37743 
L 211.564959 272.606409 
L 214.844298 270.746614 
L 218.123636 268.797345 
L 221.402975 266.758061 
L 224.682314 264.628382 
L 227.961653 262.408085 
L 231.240992 260.097105 
L 234.520331 257.695528 
L 237.799669 255.203594 
L 241.079008 252.621691 
L 244.358347 249.950348 
L 247.637686 247.190238 
L 250.917025 244.342166 
L 254.196364 241.40707 
L 257.475702 238.386011 
L 260.755041 235.280172 
L 264.03438 232.090849 
L 267.313719 228.819444 
L 270.593058 225.467465 
L 273.872397 222.036511 
L 277.151736 218.528275 
L 280.431074 214.944529 
L 283.710413 211.287123 
L 286.989752 207.557978 
L 290.269091 203.759076 
L 293.54843 199.89246 
L 296.827769 195.960219 
L 300.107107 191.964492 
L 303.386446 187.907452 
L 306.665785 183.791309 
L 309.945124 179.618297 
L 313.224463 175.390672 
L 316.503802 171.110708 
L 319.78314 166.780688 
L 323.062479 162.4029 
L 326.341818 157.979637 
L 329.621157 153.513184 
L 332.900496 149.005822 
L 336.179835 144.459817 
L 339.459174 139.877423 
L 342.738512 135.260872 
L 346.017851 130.612375 
L 349.29719 125.934116 
L 352.576529 121.228251 
L 355.855868 116.496906 
L 359.135207 111.742171 
L 362.414545 106.966101 
L 365.693884 102.170715 
L 368.973223 97.357988 
L 372.252562 92.529858 
L 375.531901 87.688218 
L 378.81124 82.834916 
L 382.090579 77.971758 
L 385.369917 73.100501 
L 388.649256 68.222857 
L 391.928595 63.340489 
L 395.207934 58.455014 
L 398.487273 53.568 
" style="fill:none;stroke:#1f77b4;stroke-linecap:square;stroke-width:1.5;"/>
   </g>
   <g id="line2d_14">
    <path clip-path="url(#p2530048f81)" d="M 73.832727 247.094323 
L 77.112066 246.223237 
L 80.391405 246.320024 
L 83.670744 245.836088 
L 86.950083 244.577852 
L 90.229421 244.771427 
L 93.50876 244.674639 
L 96.788099 243.706766 
L 100.067438 243.126042 
L 103.346777 242.061381 
L 106.626116 240.319208 
L 109.905455 239.835272 
L 113.184793 240.99672 
L 116.464132 238.770611 
L 119.743471 239.060973 
L 123.02281 237.899525 
L 126.302149 237.3188 
L 129.581488 237.609163 
L 132.860826 238.189887 
L 136.140165 234.899117 
L 139.419504 234.511967 
L 142.698843 234.318393 
L 145.978182 232.866582 
L 149.257521 232.673008 
L 152.53686 231.511559 
L 155.816198 229.091875 
L 159.095537 233.156944 
L 162.374876 229.575812 
L 165.654215 230.930835 
L 168.933554 228.511151 
L 172.212893 226.768979 
L 175.492231 226.672192 
L 178.77157 222.897485 
L 182.050909 219.703502 
L 185.330248 219.606715 
L 188.609587 220.961738 
L 191.888926 217.96133 
L 195.168264 217.767755 
L 198.447603 217.96133 
L 201.726942 217.670968 
L 205.006281 214.573772 
L 208.28562 214.089836 
L 211.564959 213.121962 
L 214.844298 210.218341 
L 218.123636 207.895445 
L 221.402975 206.540422 
L 224.682314 207.798658 
L 227.961653 202.765715 
L 231.240992 204.217526 
L 234.520331 203.830376 
L 237.799669 196.184175 
L 241.079008 196.861687 
L 244.358347 199.474945 
L 247.637686 194.635578 
L 250.917025 193.377342 
L 254.196364 189.892997 
L 257.475702 187.376526 
L 260.755041 190.086572 
L 264.03438 184.763267 
L 267.313719 187.182951 
L 270.593058 183.117882 
L 273.872397 179.730325 
L 277.151736 182.150009 
L 280.431074 182.82752 
L 283.710413 173.34236 
L 286.989752 167.341544 
L 290.269091 168.406205 
L 293.54843 168.502992 
L 296.827769 165.115435 
L 300.107107 164.825073 
L 303.386446 163.566837 
L 306.665785 160.082492 
L 309.945124 153.307378 
L 313.224463 148.951947 
L 316.503802 149.726245 
L 319.78314 148.46801 
L 323.062479 142.951131 
L 326.341818 144.79009 
L 329.621157 131.336648 
L 332.900496 137.627826 
L 336.179835 130.659137 
L 339.459174 130.271987 
L 342.738512 126.400493 
L 346.017851 119.528591 
L 349.29719 122.625786 
L 352.576529 111.204879 
L 355.855868 113.043838 
L 359.135207 100.55827 
L 362.414545 106.559086 
L 365.693884 98.525735 
L 368.973223 97.364287 
L 372.252562 88.266276 
L 375.531901 79.071477 
L 378.81124 82.168673 
L 382.090579 77.329305 
L 385.369917 70.360616 
L 388.649256 66.779483 
L 391.928595 66.198759 
L 395.207934 56.907173 
L 398.487273 54.003553 
" style="fill:none;stroke:#ff7f0e;stroke-linecap:square;stroke-width:1.5;"/>
   </g>
   <g id="patch_3">
    <path d="M 57.6 307.584 
L 57.6 41.472 
" style="fill:none;stroke:#000000;stroke-linecap:square;stroke-linejoin:miter;stroke-width:0.8;"/>
   </g>
   <g id="patch_4">
    <path d="M 414.72 307.584 
L 414.72 41.472 
" style="fill:none;stroke:#000000;stroke-linecap:square;stroke-linejoin:miter;stroke-width:0.8;"/>
   </g>
   <g id="patch_5">
    <path d="M 57.6 307.584 
L 414.72 307.584 
" style="fill:none;stroke:#000000;stroke-linecap:square;stroke-linejoin:miter;stroke-width:0.8;"/>
   </g>
   <g id="patch_6">
    <path d="M 57.6 41.472 
L 414.72 41.472 
" style="fill:none;stroke:#000000;stroke-linecap:square;stroke-linejoin:miter;stroke-width:0.8;"/>
   </g>
   <g id="text_15">
    <text style="font-family:DejaVu Sans;font-size:12px;font-style:normal;font-weight:normal;text-anchor:middle;" transform="rotate(-0, 236.16, 35.472)" x="236.16" y="35.472">Coin Flips for pow(x,5/1)</text>
   </g>
   <g id="legend_1">
    <g id="patch_7">
     <path d="M 64.6 78.82825 
L 245.404687 78.82825 
Q 247.404687 78.82825 247.404687 76.82825 
L 247.404687 48.472 
Q 247.404687 46.472 245.404687 46.472 
L 64.6 46.472 
Q 62.6 46.472 62.6 48.472 
L 62.6 76.82825 
Q 62.6 78.82825 64.6 78.82825 
z
" style="fill:#ffffff;opacity:0.8;stroke:#cccccc;stroke-linejoin:miter;"/>
    </g>
    <g id="line2d_15">
     <path d="M 66.6 54.570437 
L 86.6 54.570437 
" style="fill:none;stroke:#1f77b4;stroke-linecap:square;stroke-width:1.5;"/>
    </g>
    <g id="line2d_16"/>
    <g id="text_16">
     <text style="font-family:DejaVu Sans;font-size:10px;font-style:normal;font-weight:normal;text-anchor:start;" transform="rotate(-0, 94.6, 58.070437)" x="94.6" y="58.070437">Coin Flip Lower Bound</text>
    </g>
    <g id="line2d_17">
     <path d="M 66.6 69.248562 
L 86.6 69.248562 
" style="fill:none;stroke:#ff7f0e;stroke-linecap:square;stroke-width:1.5;"/>
    </g>
    <g id="line2d_18"/>
    <g id="text_17">
     <text style="font-family:DejaVu Sans;font-size:10px;font-style:normal;font-weight:normal;text-anchor:start;" transform="rotate(-0, 94.6, 72.748562)" x="94.6" y="72.748562">Avg. Coins Flipped pow(x,5/1)</text>
    </g>
   </g>
  </g>
 </g>
 <defs>
  <clipPath id="p2530048f81">
   <rect height="266.112" width="357.12" x="57.6" y="41.472"/>
  </clipPath>
 </defs>
</svg>

<svg height="460.8" viewBox="0 0 460.8 345.6" width="614.4" xmlns="http://www.w3.org/2000/svg" xmlns:xlink="http://www.w3.org/1999/xlink"><defs><style>*{stroke-linecap:butt;stroke-linejoin:round}</style></defs><g id="figure_1"><path d="M0 345.6h460.8V0H0z" fill="#fff" id="patch_1"/><g id="axes_1"><path d="M57.6 307.584h357.12V41.472H57.6z" fill="#fff" id="patch_2"/><g id="matplotlib.axis_1"><g id="xtick_1"><g id="line2d_1"><defs><path d="M0 0v3.5" id="m71b379b342" stroke="#000" stroke-width=".8"/></defs><use x="73.8" xlink:href="#m71b379b342" y="307.584" stroke="#000" stroke-width=".8"/></g><text x="73.8" y="322.182" font-family="DejaVu Sans" font-size="10" font-weight="400" text-anchor="middle" id="text_1">0.0</text></g><g id="xtick_2"><use x="138.744" xlink:href="#m71b379b342" y="307.584" stroke="#000" stroke-width=".8" id="line2d_2"/><text x="138.744" y="322.182" font-family="DejaVu Sans" font-size="10" font-weight="400" text-anchor="middle" id="text_2">0.2</text></g><g id="xtick_3"><use x="203.688" xlink:href="#m71b379b342" y="307.584" stroke="#000" stroke-width=".8" id="line2d_3"/><text x="203.688" y="322.182" font-family="DejaVu Sans" font-size="10" font-weight="400" text-anchor="middle" id="text_3">0.4</text></g><g id="xtick_4"><use x="268.632" xlink:href="#m71b379b342" y="307.584" stroke="#000" stroke-width=".8" id="line2d_4"/><text x="268.632" y="322.182" font-family="DejaVu Sans" font-size="10" font-weight="400" text-anchor="middle" id="text_4">0.6</text></g><g id="xtick_5"><use x="333.576" xlink:href="#m71b379b342" y="307.584" stroke="#000" stroke-width=".8" id="line2d_5"/><text x="333.576" y="322.182" font-family="DejaVu Sans" font-size="10" font-weight="400" text-anchor="middle" id="text_5">0.8</text></g><g id="xtick_6"><use x="398.52" xlink:href="#m71b379b342" y="307.584" stroke="#000" stroke-width=".8" id="line2d_6"/><text x="398.52" y="322.182" font-family="DejaVu Sans" font-size="10" font-weight="400" text-anchor="middle" id="text_6">1.0</text></g><text x="236.16" y="335.861" font-family="DejaVu Sans" font-size="10" font-weight="400" text-anchor="middle" id="text_7">Input Coin&apos;s Heads Probability (λ)</text></g><g id="matplotlib.axis_2"><g id="ytick_1"><g id="line2d_7"><defs><path d="M0 0h-3.5" id="m545179cc15" stroke="#000" stroke-width=".8"/></defs><use x="57.6" xlink:href="#m545179cc15" y="295.488" stroke="#000" stroke-width=".8"/></g><text x="50.6" y="299.287" font-family="DejaVu Sans" font-size="10" font-weight="400" text-anchor="end" id="text_8">0</text></g><g id="ytick_2"><use x="57.6" xlink:href="#m545179cc15" y="247.094" stroke="#000" stroke-width=".8" id="line2d_8"/><text x="50.6" y="250.894" font-family="DejaVu Sans" font-size="10" font-weight="400" text-anchor="end" id="text_9">1</text></g><g id="ytick_3"><use x="57.6" xlink:href="#m545179cc15" y="198.701" stroke="#000" stroke-width=".8" id="line2d_9"/><text x="50.6" y="202.5" font-family="DejaVu Sans" font-size="10" font-weight="400" text-anchor="end" id="text_10">2</text></g><g id="ytick_4"><use x="57.6" xlink:href="#m545179cc15" y="150.307" stroke="#000" stroke-width=".8" id="line2d_10"/><text x="50.6" y="154.106" font-family="DejaVu Sans" font-size="10" font-weight="400" text-anchor="end" id="text_11">3</text></g><g id="ytick_5"><use x="57.6" xlink:href="#m545179cc15" y="101.913" stroke="#000" stroke-width=".8" id="line2d_11"/><text x="50.6" y="105.713" font-family="DejaVu Sans" font-size="10" font-weight="400" text-anchor="end" id="text_12">4</text></g><g id="ytick_6"><use x="57.6" xlink:href="#m545179cc15" y="53.52" stroke="#000" stroke-width=".8" id="line2d_12"/><text x="50.6" y="57.319" font-family="DejaVu Sans" font-size="10" font-weight="400" text-anchor="end" id="text_13">5</text></g><text transform="rotate(-90 38.158 174.528)" x="38.158" y="174.528" font-family="DejaVu Sans" font-size="10" font-weight="400" text-anchor="middle" id="text_14">Coin Flips Needed</text></g><path clip-path="url(#p2530048f81)" d="M73.833 295.488h6.558l3.28-.001 3.28-.002 3.278-.005 3.28-.007 3.28-.013 3.278-.02 3.28-.027 3.28-.039 3.278-.05 3.28-.066 3.28-.083 3.278-.103 3.28-.126 3.28-.151 3.278-.18 3.28-.21 3.28-.245 3.279-.282 3.279-.323 3.28-.365 3.279-.412 3.279-.46 3.28-.514 3.279-.568 3.279-.626 3.28-.687 3.279-.75 3.279-.817 3.28-.885 3.279-.956 3.279-1.03 3.28-1.104 3.279-1.183 3.279-1.261 3.28-1.344 3.279-1.426 3.279-1.51 3.28-1.596 3.279-1.684 3.279-1.77 3.28-1.86 3.279-1.95 3.279-2.039 3.28-2.13 3.279-2.22 3.279-2.31 3.28-2.402 3.279-2.492 3.279-2.582 3.28-2.672 3.279-2.76 3.279-2.848 3.28-2.935 3.279-3.021 3.279-3.106 3.28-3.19 3.279-3.27 3.28-3.353 3.278-3.43 3.28-3.509 3.28-3.583 3.278-3.658 3.28-3.729 3.28-3.799 3.278-3.867 3.28-3.932 3.28-3.996 3.278-4.057 3.28-4.116 3.28-4.173 3.278-4.227 3.28-4.28 3.28-4.33 3.278-4.378 3.28-4.423 3.28-4.467 3.278-4.507 3.28-4.546 3.28-4.583 3.279-4.616 3.279-4.649 3.28-4.678 3.279-4.706 3.279-4.731 3.28-4.755 3.279-4.776 3.279-4.795 3.28-4.813 3.279-4.828 3.279-4.842 3.28-4.853 3.279-4.863 3.279-4.871 3.28-4.878 3.279-4.883 3.279-4.885 3.28-4.887" fill="none" stroke="#1f77b4" stroke-linecap="square" stroke-width="1.5" id="line2d_13"/><path clip-path="url(#p2530048f81)" d="M73.833 247.094l3.28-.87 3.278.096 3.28-.484 3.28-1.258 3.278.193 3.28-.096 3.28-.968 3.278-.581 3.28-1.065 3.28-1.742 3.278-.484 3.28 1.162 3.28-2.226 3.278.29 3.28-1.161 3.28-.581 3.278.29 3.28.58 3.28-3.29 3.279-.387 3.279-.194 3.28-1.451 3.279-.194 3.279-1.161 3.28-2.42 3.279 4.065 3.279-3.581 3.28 1.355 3.279-2.42 3.279-1.742 3.28-.097 3.279-3.775 3.279-3.193 3.28-.097 3.279 1.355 3.279-3 3.28-.194 3.279.193 3.279-.29 3.28-3.097 3.279-.484 3.279-.968 3.28-2.904 3.279-2.323 3.279-1.355 3.28 1.259 3.279-5.033 3.279 1.452 3.28-.388 3.279-7.646 3.279.678 3.28 2.613 3.279-4.84 3.279-1.258 3.28-3.484 3.279-2.516 3.279 2.71 3.28-5.324 3.279 2.42 3.28-4.065 3.278-3.388 3.28 2.42 3.28.678 3.278-9.486 3.28-6 3.28 1.064 3.278.097 3.28-3.388 3.28-.29 3.278-1.258 3.28-3.485 3.28-6.775 3.278-4.355 3.28.774 3.28-1.258 3.278-5.517 3.28 1.84 3.28-13.454 3.278 6.29 3.28-6.968 3.28-.387 3.279-3.872 3.279-6.871 3.28 3.097 3.279-11.421 3.279 1.839 3.28-12.486 3.279 6.001 3.279-8.033 3.28-1.162 3.279-9.098 3.279-9.195 3.28 3.098 3.279-4.84 3.279-6.968 3.28-3.582 3.279-.58 3.279-9.292 3.28-2.903" fill="none" stroke="#ff7f0e" stroke-linecap="square" stroke-width="1.5" id="line2d_14"/><path d="M57.6 307.584V41.472" fill="none" stroke="#000" stroke-linecap="square" stroke-width=".8" id="patch_3"/><path d="M414.72 307.584V41.472" fill="none" stroke="#000" stroke-linecap="square" stroke-width=".8" id="patch_4"/><path d="M57.6 307.584h357.12" fill="none" stroke="#000" stroke-linecap="square" stroke-width=".8" id="patch_5"/><path d="M57.6 41.472h357.12" fill="none" stroke="#000" stroke-linecap="square" stroke-width=".8" id="patch_6"/><text x="236.16" y="35.472" font-family="DejaVu Sans" font-size="12" font-weight="400" text-anchor="middle" id="text_15">Coin Flips for pow(x,5/1)</text><g id="legend_1"><path d="M64.6 78.828h180.805q2 0 2-2V48.472q0-2-2-2H64.6q-2 0-2 2v28.356q0 2 2 2z" fill="#fff" opacity=".8" stroke="#ccc" id="patch_7"/><path d="M66.6 54.57h20" fill="none" stroke="#1f77b4" stroke-linecap="square" stroke-width="1.5" id="line2d_15"/><text x="94.6" y="58.07" font-family="DejaVu Sans" font-size="10" font-weight="400" id="text_16">Coin Flip Lower Bound</text><path d="M66.6 69.249h20" fill="none" stroke="#ff7f0e" stroke-linecap="square" stroke-width="1.5" id="line2d_17"/><text x="94.6" y="72.749" font-family="DejaVu Sans" font-size="10" font-weight="400" id="text_17">Avg. Coins Flipped pow(x,5/1)</text></g></g></g><defs><clipPath id="p2530048f81"><path d="M57.6 41.472h357.12v266.112H57.6z"/></clipPath></defs></svg>
